X:1
T:La Cucaracha
R:Corrido
S:Trad Mexiko
O:Mexiko
Z:Johan Ronström 2010
M:4/4
L:1/8
K:D
A AA|:d3 f- fA AA|d3f-f4|zd2 d cc BB|A4zA AA|
c3e- eA AA|c3e-e4|za2 b ag fe|1d4zA AA:|2d4z4|
|:zA2A dd ff|a3 f-f2 z2|za ab ag fa|g3 e-e2 z2|
zA2A cc ee|g3 e-e2 z2|za2 b ag fe|d4z4:|

